!!!OTL: O Traurigkeit!
!!!ARE: Europa, Mitteleuropa, Deutschland
!!!SCT: A0550
!!!YEM: Copyright 1995, estate of Helmut Schaffrath.
**kern
*ICvox
*Ivox
*M4/4
*k[]
*a:
{2ee
=1
4ccn
4b
2b
=2
4r
4g#
4a
4a
=3
2g#
4r}
{4ee
=4
4ee
4ee
4ffn
4ee
=5
2dd
2ccn}
=6
{4b
4ccn
4dd
4ee
=7
4dd
4ccn
2b}
=8
{4a
4b
4ccn
4dd
=9
2b
2a
=10
2r}
==
!!!AGN: Romanze, Ballade, Lied, religioeses Lied
!! Corners Gsgb 1625.
!!!ONB: ESAC (Essen Associative Code) Database: ALTDEU
!!!AMT: simple quadruple
!!!AIN: vox
!!!EED: Helmut Schaffrath
!!!EEV: 1.0
*-
